X: 2
T: Preston's
S: Jim McAuley
M: 4/4
L: 1/8
R: reel
K: G Major
|: GABA G2 G2  | FGAG FDDF |  
GB B2 Bcdg |[1 fgaf geBA :|[2 fgaf   g3 d ||
|: gb b/b/b fgaf | gedg geea |
[1 gb b/b/b faaf | gede g2 gf :|
[2 g2 fg e^cdB | c2 df geBA |]
